Yaru++/actions/16/zoom-fit-width.svg

<svg height="16" width="16" xmlns="http://www.w3.org/2000/svg"><g fill="#808080"><path d="m5.994 2c-1.258.015-2.179-.03-2.932.385a1.88 1.88 0 0 0 -.837.998c-.165.437-.225.96-.225 1.617v2h1v-2c0-.592.063-1.006.16-1.266.098-.26.201-.371.385-.472.365-.202 1.195-.247 2.455-.262h1v-1h-1.002zm3.0059997 0v1h1.0000003c1.258.015 2.087.06 2.453.262.183.1.29.212.387.472s.16.674.16 1.266v2h1v-2c0-.658-.06-1.179-.225-1.617a1.88 1.88 0 0 0 -.838-.998c-.752-.416-1.673-.37-2.931-.385h-.004zm-6.9999997 7v2c0 .658.06 1.179.225 1.617.164.439.461.79.837.998.753.416 1.674.37 2.932.385h1.006v-1h-1c-1.259-.015-2.09-.06-2.455-.262-.184-.1-.287-.212-.385-.472-.097-.26-.16-.674-.16-1.266v-2zm11 0v2c0 .592-.063 1.006-.16 1.266-.098.26-.202.371-.385.472-.366.202-1.197.247-2.455.262h-1.0000003v1h1.0060003c1.258-.015 2.179.03 2.932-.385a1.88 1.88 0 0 0 .837-.998c.165-.438.225-.96.225-1.617v-2z"/><path d="m6.8298335 4.5c-.7338333.00875-1.2710833-.0175-1.7103333.2245833a1.0966667 1.0966667 0 0 0 -.48825.5821667c-.09625.2549167-.13125.56-.13125.94325v1.1666667h.5833333v-1.1666667c0-.3453333.03675-.5868333.093333-.7385.057167-.1516667.1172504-.2164167.2245837-.2753333.2129167-.1178334.6970833-.1440834 1.4320833-.1528334h.5833334v-.5833333h-.5845zm1.7535 0v.5833333h.5833335c.733833.00875 1.217417.035 1.430917.1528334.10675.058333.169166.1236666.22575.2753333.05658.1516667.09333.3931667.09333.7385v1.1666667h.583333v-1.1666667c0-.3838333-.035-.68775-.13125-.94325a1.0966667 1.0966667 0 0 0 -.48883-.5821667c-.438667-.2426666-.9759168-.2158333-1.7097497-.2245833h-.00232zm-4.0833333 4.083333v1.166667c0 .383833.035.68775.13125.94325.095667.256083.2689167.460833.48825.582167.43925.242666.9765.215833 1.7103333.224583h.5868334v-.583333h-.5833334c-.7344166-.0088-1.2191666-.035-1.4320833-.152834-.1073333-.05833-.1674167-.123666-.2245833-.275333-.056583-.151667-.093333-.393167-.093333-.7385v-1.166667zm6.4166668 0v1.166667c0 .345333-.03675.586833-.09333.7385-.05717.151667-.117834.216417-.224584.275333-.2135.117834-.69825.144084-1.432083.152834h-.5833365v.583333h.5868337c.733833-.0087 1.2710828.0175 1.7103328-.224583a1.0966667 1.0966667 0 0 0 .48825-.582167c.09625-.2555.13125-.56.13125-.94325v-1.166667z" stroke="#808080" stroke-width=".4"/></g></svg>

<?xml version="1.0" encoding="UTF-8" standalone="no"?>
<svg
   xmlns:dc="http://purl.org/dc/elements/1.1/"
   xmlns:cc="http://creativecommons.org/ns#"
   xmlns:rdf="http://www.w3.org/1999/02/22-rdf-syntax-ns#"
   xmlns:svg="http://www.w3.org/2000/svg"
   xmlns="http://www.w3.org/2000/svg"
   xmlns:sodipodi="http://sodipodi.sourceforge.net/DTD/sodipodi-0.dtd"
   xmlns:inkscape="http://www.inkscape.org/namespaces/inkscape"
   width="16"
   height="16"
   version="1.1"
   id="svg6"
   sodipodi:docname="zoom-fit-width.svg"
   inkscape:version="0.92.4 (5da689c313, 2019-01-14)">
  <metadata
     id="metadata12">
    <rdf:RDF>
      <cc:Work
         rdf:about="">
        <dc:format>image/svg+xml</dc:format>
        <dc:type
           rdf:resource="http://purl.org/dc/dcmitype/StillImage" />
      </cc:Work>
    </rdf:RDF>
  </metadata>
  <defs
     id="defs10" />
  <sodipodi:namedview
     pagecolor="#ffffff"
     bordercolor="#666666"
     borderopacity="1"
     objecttolerance="10"
     gridtolerance="10"
     guidetolerance="10"
     inkscape:pageopacity="0"
     inkscape:pageshadow="2"
     inkscape:window-width="1920"
     inkscape:window-height="1016"
     id="namedview8"
     showgrid="false"
     inkscape:zoom="14.75"
     inkscape:cx="13.201249"
     inkscape:cy="8"
     inkscape:window-x="0"
     inkscape:window-y="27"
     inkscape:window-maximized="1"
     inkscape:current-layer="svg6" />
  <path
     d="M 5.994,2 C 4.736,2.015 3.815,1.97 3.062,2.385 A 1.88,1.88 0 0 0 2.225,3.383 C 2.06,3.82 2,4.343 2,5 V 7 H 3 V 5 C 3,4.408 3.063,3.994 3.16,3.734 3.258,3.474 3.361,3.363 3.545,3.262 3.91,3.06 4.74,3.015 6,3 H 7 V 2 H 5.998 Z M 8.9999997,2 V 3 H 10 c 1.258,0.015 2.087,0.06 2.453,0.262 0.183,0.1 0.29,0.212 0.387,0.472 C 12.937,3.994 13,4.408 13,5 v 2 h 1 V 5 C 14,4.342 13.94,3.821 13.775,3.383 A 1.88,1.88 0 0 0 12.937,2.385 C 12.185,1.969 11.264,2.015 10.006,2 H 10.002 Z M 2,9 v 2 c 0,0.658 0.06,1.179 0.225,1.617 0.164,0.439 0.461,0.79 0.837,0.998 0.753,0.416 1.674,0.37 2.932,0.385 H 7 V 13 H 6 C 4.741,12.985 3.91,12.94 3.545,12.738 3.361,12.638 3.258,12.526 3.16,12.266 3.063,12.006 3,11.592 3,11 V 9 Z m 11,0 v 2 c 0,0.592 -0.063,1.006 -0.16,1.266 -0.098,0.26 -0.202,0.371 -0.385,0.472 C 12.089,12.94 11.258,12.985 10,13 H 8.9999997 v 1 H 10.006 c 1.258,-0.015 2.179,0.03 2.932,-0.385 a 1.88,1.88 0 0 0 0.837,-0.998 C 13.94,12.179 14,11.657 14,11 V 9 Z"
     font-weight="400"
     overflow="visible"
     id="path2"
     inkscape:connector-curvature="0"
     style="color:#000000;font-weight:400;font-family:sans-serif;overflow:visible;fill:#808080;stroke-width:1" />
  <path
     d="M 6.8298335,4.5 C 6.0960002,4.50875 5.5587502,4.4825 5.1195002,4.7245833 A 1.0966667,1.0966667 0 0 0 4.6312502,5.30675 c -0.09625,0.2549167 -0.13125,0.56 -0.13125,0.94325 V 7.4166667 H 5.0833335 V 6.25 c 0,-0.3453333 0.03675,-0.5868333 0.093333,-0.7385 C 5.2338335,5.3598333 5.2939169,5.2950833 5.4012502,5.2361667 5.6141669,5.1183333 6.0983335,5.0920833 6.8333335,5.0833333 H 7.4166669 V 4.5 h -0.5845 z m 1.7535,0 V 5.0833333 H 9.166667 c 0.733833,0.00875 1.217417,0.035 1.430917,0.1528334 0.10675,0.058333 0.169166,0.1236666 0.22575,0.2753333 0.05658,0.1516667 0.09333,0.3931667 0.09333,0.7385 v 1.1666667 h 0.583333 V 6.25 c 0,-0.3838333 -0.035,-0.68775 -0.13125,-0.94325 A 1.0966667,1.0966667 0 0 0 10.879917,4.7245833 C 10.44125,4.4819167 9.9040002,4.50875 9.1701673,4.5 h -0.00232 z M 4.5000002,8.583333 V 9.75 c 0,0.383833 0.035,0.68775 0.13125,0.94325 0.095667,0.256083 0.2689167,0.460833 0.48825,0.582167 0.43925,0.242666 0.9765,0.215833 1.7103333,0.224583 H 7.4166669 V 10.916667 H 6.8333335 C 6.0989169,10.907867 5.6141669,10.881667 5.4012502,10.763833 5.2939169,10.705503 5.2338335,10.640167 5.1766669,10.4885 5.1200839,10.336833 5.0833339,10.095333 5.0833339,9.75 V 8.583333 Z m 6.4166668,0 V 9.75 c 0,0.345333 -0.03675,0.586833 -0.09333,0.7385 -0.05717,0.151667 -0.117834,0.216417 -0.224584,0.275333 -0.2135,0.117834 -0.69825,0.144084 -1.432083,0.152834 H 8.5833335 V 11.5 H 9.1701672 C 9.9040002,11.4913 10.44125,11.5175 10.8805,11.275417 A 1.0966667,1.0966667 0 0 0 11.36875,10.69325 C 11.465,10.43775 11.5,10.13325 11.5,9.75 V 8.583333 Z"
     font-weight="400"
     overflow="visible"
     style="font-weight:400;overflow:visible;fill:#808080;stroke:#808080;stroke-width:0.4;stroke-miterlimit:4;stroke-dasharray:none"
     id="path4"
     inkscape:connector-curvature="0" />
</svg>
